Papirus/32x32/mimetypes/text-x-csrc.svg

<svg width="32" height="32" version="1.1" xmlns="http://www.w3.org/2000/svg">
 <path d="m6.375 3c-0.76175 0-1.375 0.6244-1.375 1.4v25.2c0 0.77504 0.61325 1.4 1.375 1.4h19.25c0.7612 0 1.375-0.62496 1.375-1.4v-17.6l-7-2-2-7z" style="opacity:.2"/>
 <path d="m6.375 2c-0.76175 0-1.375 0.6244-1.375 1.4v25.2c0 0.77504 0.61325 1.4 1.375 1.4h19.25c0.7612 0 1.375-0.62496 1.375-1.4v-17.6l-7-2-2-7z" style="fill:#4094e1"/>
 <path d="m19 17v-0.571429s0-1.428571-3-1.428571c-2.84691 0-3.000336 2.857143-3.000337 5 0 2.142857 0.153427 5 3.000337 5 3 0 3-1.428572 3-1.428572v-0.571428" style="fill:none;stroke-linecap:square;stroke-width:2;stroke:#ffffff"/>
 <path d="m27 12-9-9v7.59375c0 0.779625 0.62775 1.40625 1.40625 1.40625z" style="opacity:.2"/>
 <path d="m27 11-9-9v7.59375c0 0.779625 0.62775 1.40625 1.40625 1.40625z" style="fill:#5faaf2"/>
 <path d="M 6.375,2 C 5.61325,2 5,2.6247906 5,3.4003906 v 1 C 5,3.6247906 5.61325,3 6.375,3 H 18 V 2 Z" style="fill:#ffffff;opacity:.1"/>
</svg>

<svg xmlns="http://www.w3.org/2000/svg" width="32" height="32" version="1.1">
 <path style="opacity:0.2" d="M 6.375,3 C 5.61325,3 5,3.6244 5,4.4 V 29.6 C 5,30.37504 5.61325,31 6.375,31 h 19.25 C 26.3862,31 27,30.37504 27,29.6 V 12 L 20,10 18,3 Z"/>
 <path style="fill:#e4e4e4" d="M 6.375,2 C 5.61325,2 5,2.6244 5,3.4 V 28.6 C 5,29.37504 5.61325,30 6.375,30 h 19.25 C 26.3862,30 27,29.37504 27,28.6 V 11 L 20,9 18,2 Z"/>
 <path style="opacity:0.2" d="M 27,12 18,3 v 7.59375 C 18,11.373375 18.62775,12 19.40625,12 Z"/>
 <path style="fill:#fafafa" d="M 27,11 18,2 V 9.59375 C 18,10.373375 18.62775,11 19.40625,11 Z"/>
 <path style="opacity:0.2;fill:#ffffff" d="M 6.375,2 C 5.61325,2 5,2.6247906 5,3.4003906 v 1 C 5,3.6247906 5.61325,3 6.375,3 H 18 V 2 Z"/>
 <path style="fill:#0180cd" d="m 15.991073,15 c -1.770195,0 -3.026793,0.976166 -3.52337,2.138672 C 11.971127,18.301177 12,19.536887 11.999999,20.5 c 0,0.963113 -0.02888,2.198822 0.467704,3.361328 C 12.96428,25.023834 14.220878,26 15.991073,26 c 1.626152,0 2.634044,-0.355696 3.256389,-0.890625 0.311172,-0.267465 0.506285,-0.573579 0.609964,-0.830078 0.103679,-0.256499 0.124721,-0.554688 0.124721,-0.554688 L 19.999686,23 h -1.995537 l -0.01364,0.546875 c -0.0019,0.0048 0.0058,0.0047 -0.04092,0.04492 C 17.815706,23.706872 17.325826,24 15.991073,24 14.800362,24 14.561548,23.683019 14.301493,23.074219 14.041438,22.465419 13.995536,21.451664 13.995536,20.5 c 0,-0.951665 0.0459,-1.965419 0.305957,-2.574219 C 14.561548,17.316981 14.800362,17 15.991073,17 c 1.334753,0 1.824635,0.293132 1.958511,0.408203 0.04674,0.04018 0.03906,0.04017 0.04092,0.04492 L 18.004149,18 h 1.995537 l -0.01754,-0.724609 c 0,0 -0.02104,-0.298189 -0.124721,-0.554688 C 19.753749,16.464208 19.558634,16.15809 19.247462,15.890625 18.625117,15.355696 17.617224,15 15.991073,15 Z"/>
</svg>
